public/img/old-svg/city.svg

<svg width="36" height="36" viewBox="0 0 36 36" fill="none" xmlns="http://www.w3.org/2000/svg">
<path d="M34.7995 6.60002H33.5994V4.80002C33.5994 4.46885 33.3306 4.20005 32.9995 4.20005H29.3995C29.0683 4.20005 28.7995 4.46885 28.7995 4.80002V6.60002H27.5995C27.2683 6.60002 26.9995 6.86883 26.9995 7.2V16.8H26.3995V15C26.3995 14.6688 26.1307 14.4 25.7995 14.4H25.1995V13.8C25.1995 13.4689 24.9307 13.2 24.5995 13.2C24.2683 13.2 23.9995 13.4689 23.9995 13.8V14.4H23.3995C23.0683 14.4 22.7995 14.6688 22.7995 15V16.8H20.9995V4.80002C20.9995 4.46885 20.7307 4.20005 20.3995 4.20005H18.5995V0.600047C18.5995 0.268805 18.3307 0 17.9995 0H10.7995C10.4683 0 10.1995 0.268805 10.1995 0.599977V4.19998H8.39952C8.06834 4.19998 7.79954 4.46878 7.79954 4.79995V20.4H6.59952V18.6C6.59952 18.2688 6.33071 18 5.99954 18H2.39954C2.06837 18 1.79956 18.2688 1.79956 18.6V20.4H1.19959C0.868414 20.4 0.599609 20.6688 0.599609 21V35.4C0.599609 35.7311 0.868414 35.9999 1.19959 35.9999H8.39959H13.1996H27.5996H34.7996C35.1308 35.9999 35.3996 35.7311 35.3996 35.4V7.2C35.3995 6.86883 35.1307 6.60002 34.7995 6.60002ZM17.3995 7.2C17.3995 6.86883 17.6683 6.60002 17.9995 6.60002C18.3307 6.60002 18.5995 6.86883 18.5995 7.2V16.8H17.3994V7.2H17.3995ZM14.9995 3.00002C14.9995 2.66885 15.2683 2.40005 15.5994 2.40005C15.9306 2.40005 16.1994 2.66885 16.1994 3.00002V4.80002C16.1994 5.1312 15.9306 5.4 15.5994 5.4C15.2683 5.4 14.9995 5.1312 14.9995 4.80002V3.00002ZM14.9995 7.2C14.9995 6.86883 15.2683 6.60002 15.5994 6.60002C15.9306 6.60002 16.1994 6.86883 16.1994 7.2V16.8H14.9994V7.2H14.9995ZM12.5995 3.00002C12.5995 2.66885 12.8683 2.40005 13.1995 2.40005C13.5306 2.40005 13.7994 2.66885 13.7994 3.00002V4.80002C13.7994 5.1312 13.5306 5.4 13.1995 5.4C12.8683 5.4 12.5995 5.1312 12.5995 4.80002V3.00002ZM10.1995 7.2C10.1995 6.86883 10.4683 6.60002 10.7995 6.60002C11.1307 6.60002 11.3995 6.86883 11.3995 7.2V20.4H10.1994V7.2H10.1995ZM12.5995 33.6H10.7995C10.4683 33.6 10.1995 33.3312 10.1995 33C10.1995 32.6689 10.4683 32.4001 10.7995 32.4001H12.5995V33.6ZM12.5995 31.2H10.7995C10.4683 31.2 10.1995 30.9312 10.1995 30.6C10.1995 30.2688 10.4683 30 10.7995 30H12.5995V31.2ZM12.5995 28.8H10.7995C10.4683 28.8 10.1995 28.5312 10.1995 28.2C10.1995 27.8689 10.4683 27.6 10.7995 27.6H12.5995V28.8ZM12.5995 26.4H10.7995C10.4683 26.4 10.1995 26.1312 10.1995 25.8C10.1995 25.4689 10.4683 25.2001 10.7995 25.2001H12.5995V26.4ZM12.5995 22.8H8.39952C8.06834 22.8 7.79954 23.0688 7.79954 23.4V34.8H1.79949V21.6H2.39947H5.99947H8.39945H10.7995H12.5995V22.8ZM12.5995 17.4V7.2C12.5995 6.86883 12.8683 6.60002 13.1995 6.60002C13.5306 6.60002 13.7994 6.86883 13.7994 7.2V16.8H13.1995C12.8683 16.8 12.5995 17.0688 12.5995 17.4ZM26.9995 34.8H25.7995V19.8C25.7995 19.4688 25.5307 19.2 25.1995 19.2C24.8683 19.2 24.5995 19.4688 24.5995 19.8V34.8H23.3995V19.8C23.3995 19.4688 23.1307 19.2 22.7995 19.2C22.4683 19.2 22.1995 19.4688 22.1995 19.8V34.8H20.9995V19.8C20.9995 19.4688 20.7307 19.2 20.3995 19.2C20.0684 19.2 19.7996 19.4688 19.7996 19.8V34.8H18.5995V19.8C18.5995 19.4688 18.3307 19.2 17.9996 19.2C17.6684 19.2 17.3996 19.4688 17.3996 19.8V34.8H16.1995V19.8C16.1995 19.4688 15.9307 19.2 15.5995 19.2C15.2683 19.2 14.9995 19.4688 14.9995 19.8V34.8H13.7995V33V30.6V28.2V25.8V23.4V21V18H15.5995H17.9995H20.3995H23.3995H25.7995H26.9995V34.8ZM30.5995 32.517C30.5995 32.8482 30.3307 33.117 29.9995 33.117C29.6683 33.117 29.3995 32.8482 29.3995 32.517V31.317C29.3995 30.9858 29.6683 30.717 29.9995 30.717C30.3307 30.717 30.5995 30.9858 30.5995 31.317V32.517ZM30.5995 28.917C30.5995 29.2482 30.3307 29.517 29.9995 29.517C29.6683 29.517 29.3995 29.2482 29.3995 28.917V27.717C29.3995 27.3858 29.6683 27.117 29.9995 27.117C30.3307 27.117 30.5995 27.3858 30.5995 27.717V28.917ZM30.5995 25.317C30.5995 25.6482 30.3307 25.917 29.9995 25.917C29.6683 25.917 29.3995 25.6482 29.3995 25.317V24.117C29.3995 23.7858 29.6683 23.517 29.9995 23.517C30.3307 23.517 30.5995 23.7858 30.5995 24.117V25.317ZM30.5995 21.717C30.5995 22.0482 30.3307 22.317 29.9995 22.317C29.6683 22.317 29.3995 22.0482 29.3995 21.717V20.517C29.3995 20.1858 29.6683 19.917 29.9995 19.917C30.3307 19.917 30.5995 20.1858 30.5995 20.517V21.717ZM30.5995 18.117C30.5995 18.4482 30.3307 18.717 29.9995 18.717C29.6683 18.717 29.3995 18.4482 29.3995 18.117V16.917C29.3995 16.5858 29.6683 16.317 29.9995 16.317C30.3307 16.317 30.5995 16.5858 30.5995 16.917V18.117ZM30.5995 14.517C30.5995 14.8482 30.3307 15.117 29.9995 15.117C29.6683 15.117 29.3995 14.8482 29.3995 14.517V13.317C29.3995 12.9858 29.6683 12.717 29.9995 12.717C30.3307 12.717 30.5995 12.9858 30.5995 13.317V14.517ZM30.5995 10.917C30.5995 11.2482 30.3307 11.517 29.9995 11.517C29.6683 11.517 29.3995 11.2482 29.3995 10.917V9.71698C29.3995 9.38581 29.6683 9.117 29.9995 9.117C30.3307 9.117 30.5995 9.38581 30.5995 9.71698V10.917ZM32.9995 32.517C32.9995 32.8482 32.7307 33.117 32.3995 33.117C32.0683 33.117 31.7995 32.8482 31.7995 32.517V31.317C31.7995 30.9858 32.0683 30.717 32.3995 30.717C32.7307 30.717 32.9995 30.9858 32.9995 31.317V32.517ZM32.9995 28.917C32.9995 29.2482 32.7307 29.517 32.3995 29.517C32.0683 29.517 31.7995 29.2482 31.7995 28.917V27.717C31.7995 27.3858 32.0683 27.117 32.3995 27.117C32.7307 27.117 32.9995 27.3858 32.9995 27.717V28.917ZM32.9995 25.317C32.9995 25.6482 32.7307 25.917 32.3995 25.917C32.0683 25.917 31.7995 25.6482 31.7995 25.317V24.117C31.7995 23.7858 32.0683 23.517 32.3995 23.517C32.7307 23.517 32.9995 23.7858 32.9995 24.117V25.317ZM32.9995 21.717C32.9995 22.0482 32.7307 22.317 32.3995 22.317C32.0683 22.317 31.7995 22.0482 31.7995 21.717V20.517C31.7995 20.1858 32.0683 19.917 32.3995 19.917C32.7307 19.917 32.9995 20.1858 32.9995 20.517V21.717ZM32.9995 18.117C32.9995 18.4482 32.7307 18.717 32.3995 18.717C32.0683 18.717 31.7995 18.4482 31.7995 18.117V16.917C31.7995 16.5858 32.0683 16.317 32.3995 16.317C32.7307 16.317 32.9995 16.5858 32.9995 16.917V18.117ZM32.9995 14.517C32.9995 14.8482 32.7307 15.117 32.3995 15.117C32.0683 15.117 31.7995 14.8482 31.7995 14.517V13.317C31.7995 12.9858 32.0683 12.717 32.3995 12.717C32.7307 12.717 32.9995 12.9858 32.9995 13.317V14.517ZM32.9995 10.917C32.9995 11.2482 32.7307 11.517 32.3995 11.517C32.0683 11.517 31.7995 11.2482 31.7995 10.917V9.71698C31.7995 9.38581 32.0683 9.117 32.3995 9.117C32.7307 9.117 32.9995 9.38581 32.9995 9.71698V10.917Z" fill="#EC824A"/>
</svg>

<svg width="36" height="36" viewBox="0 0 36 36" fill="none" xmlns="http://www.w3.org/2000/svg"><path d="M34.8 6.6h-1.2V4.8a.6.6 0 00-.6-.6h-3.6a.6.6 0 00-.6.6v1.8h-1.2a.6.6 0 00-.6.6v9.6h-.6V15a.6.6 0 00-.6-.6h-.6v-.6a.6.6 0 00-1.2 0v.6h-.6a.6.6 0 00-.6.6v1.8H21v-12a.6.6 0 00-.6-.6h-1.8V.6A.6.6 0 0018 0h-7.2a.6.6 0 00-.6.6v3.6H8.4a.6.6 0 00-.6.6v15.6H6.6v-1.8A.6.6 0 006 18H2.4a.6.6 0 00-.6.6v1.8h-.6a.6.6 0 00-.6.6v14.4a.6.6 0 00.6.6h33.6a.6.6 0 00.6-.6V7.2a.6.6 0 00-.6-.6zm-17.4.6a.6.6 0 011.2 0v9.6h-1.2V7.2zM15 3a.6.6 0 011.2 0v1.8a.6.6 0 01-1.2 0V3zm0 4.2a.6.6 0 011.2 0v9.6H15V7.2zM12.6 3a.6.6 0 011.2 0v1.8a.6.6 0 01-1.2 0V3zm-2.4 4.2a.6.6 0 011.2 0v13.2h-1.2V7.2zm2.4 26.4h-1.8a.6.6 0 010-1.2h1.8v1.2zm0-2.4h-1.8a.6.6 0 010-1.2h1.8v1.2zm0-2.4h-1.8a.6.6 0 010-1.2h1.8v1.2zm0-2.4h-1.8a.6.6 0 010-1.2h1.8v1.2zm0-3.6H8.4a.6.6 0 00-.6.6v11.4h-6V21.6h10.8v1.2zm0-5.4V7.2a.6.6 0 011.2 0v9.6h-.6a.6.6 0 00-.6.6zM27 34.8h-1.2v-15a.6.6 0 00-1.2 0v15h-1.2v-15a.6.6 0 00-1.2 0v15H21v-15a.6.6 0 00-1.2 0v15h-1.2v-15a.6.6 0 00-1.2 0v15h-1.2v-15a.6.6 0 00-1.2 0v15h-1.2V18H27v16.8zm3.6-2.283a.6.6 0 01-1.2 0v-1.2a.6.6 0 011.2 0v1.2zm0-3.6a.6.6 0 01-1.2 0v-1.2a.6.6 0 011.2 0v1.2zm0-3.6a.6.6 0 01-1.2 0v-1.2a.6.6 0 011.2 0v1.2zm0-3.6a.6.6 0 01-1.2 0v-1.2a.6.6 0 011.2 0v1.2zm0-3.6a.6.6 0 01-1.2 0v-1.2a.6.6 0 011.2 0v1.2zm0-3.6a.6.6 0 01-1.2 0v-1.2a.6.6 0 011.2 0v1.2zm0-3.6a.6.6 0 01-1.2 0v-1.2a.6.6 0 011.2 0v1.2zm2.4 21.6a.6.6 0 01-1.2 0v-1.2a.6.6 0 011.2 0v1.2zm0-3.6a.6.6 0 01-1.2 0v-1.2a.6.6 0 011.2 0v1.2zm0-3.6a.6.6 0 01-1.2 0v-1.2a.6.6 0 011.2 0v1.2zm0-3.6a.6.6 0 01-1.2 0v-1.2a.6.6 0 011.2 0v1.2zm0-3.6a.6.6 0 01-1.2 0v-1.2a.6.6 0 011.2 0v1.2zm0-3.6a.6.6 0 01-1.2 0v-1.2a.6.6 0 011.2 0v1.2zm0-3.6a.6.6 0 01-1.2 0v-1.2a.6.6 0 011.2 0v1.2z" fill="#EC824A"/></svg>
